numeric-6-box-multiple.svg

<svg fill="currentColor" viewBox="0 0 24 24"><path d="M13 11h2v2h-2zM3 5v16h16v2H3a2 2 0 0 1-2-2V5zm18-4a2 2 0 0 1 2 2v14a2 2 0 0 1-2 2H7a2 2 0 0 1-2-2V3a2 2 0 0 1 2-2zm-8 14h2a2 2 0 0 0 2-2v-2a2 2 0 0 0-2-2h-2V7h4V5h-4a2 2 0 0 0-2 2v6a2 2 0 0 0 2 2"/></svg>

<svg  viewBox="0 0 24 24" fill="currentColor"><path  d="M13,11H15V13H13V11M3,5V21H19V23H3A2,2 0 0,1 1,21V5H3M21,1A2,2 0 0,1 23,3V17A2,2 0 0,1 21,19H7A2,2 0 0,1 5,17V3A2,2 0 0,1 7,1H21M13,15H15A2,2 0 0,0 17,13V11C17,9.89 16.1,9 15,9H13V7H17V5H13A2,2 0 0,0 11,7V13C11,14.11 11.9,15 13,15Z"/></svg>
